src/data/assets/nimtris.svg

<svg width="31" height="32" viewBox="0 0 31 32" fill="none" xmlns="http://www.w3.org/2000/svg">
<path d="M15.1808 16.1872L5.51383 13.9746C5.56696 13.6727 5.70037 13.3856 5.91194 13.1501L11.3905 7.06774C11.6394 6.79073 11.9691 6.61407 12.3207 6.55333L15.1808 16.1872Z" fill="#0582CA"/>
<path d="M15.1384 16.2191L24.7524 18.6518C24.6923 18.9525 24.5525 19.2364 24.3355 19.4671L18.7195 25.4227C18.5288 25.6254 18.2938 25.7703 18.0404 25.8533L15.1384 16.2191Z" fill="#D94432"/>
<path d="M15.1873 16.1871L9.45187 22.5911L8.5739 23.4621C8.27609 23.253 8.04909 22.9494 7.93859 22.591L5.53843 14.7644C5.45715 14.5006 5.44698 14.2275 5.49864 13.9681L15.1873 16.1871Z" fill="#0582CA"/>
<path d="M15.1295 16.2191L21.0097 9.9477L21.9073 9.097C22.2002 9.31285 22.4202 9.62154 22.5225 9.98234L24.7434 17.8618C24.8186 18.1273 24.8225 18.4005 24.765 18.6587L15.1295 16.2191Z" fill="#E9B213"/>
<path d="M15.0559 16.6278L12.7413 7.91229L12.353 6.53309C12.6133 6.47156 12.8888 6.47108 13.157 6.54157L21.1925 8.6635C21.5164 8.7487 21.7982 8.92985 22.0122 9.17277L15.0559 16.6278Z" fill="#E9B213"/>
<path d="M15.1798 15.7904L18.0785 25.8476C17.7999 25.9231 17.5121 25.9442 17.2621 25.8867L9.40706 23.9446C9.08264 23.8701 8.79641 23.6982 8.57512 23.4621L15.1798 15.7904Z" fill="#E9B213"/>
<path d="M23.2941 17.5702L21.3971 10.8386C21.2599 10.3567 20.8779 9.98558 20.3944 9.86268L13.6161 8.13972C13.1326 8.01682 12.6198 8.16048 12.2713 8.51897L7.39009 13.5276C7.04159 13.8861 6.91074 14.4008 7.04575 14.8822L8.94278 21.6138C9.07779 22.0952 9.45973 22.4663 9.94325 22.5892L16.7215 24.3121C17.205 24.435 17.7178 24.2914 18.0663 23.9329L22.9476 18.9243C23.2983 18.5664 23.4292 18.0516 23.2941 17.5702Z" fill="#1F2348"/>
</svg>

<svg xmlns="http://www.w3.org/2000/svg" width="31" height="32" fill="none" viewBox="0 0 31 32"><path fill="#0582ca" d="m15.18 16.187-9.666-2.212a1.66 1.66 0 0 1 .398-.825l5.478-6.082a1.62 1.62 0 0 1 .93-.515z"/><path fill="#d94432" d="m15.138 16.22 9.614 2.432c-.06.3-.2.584-.416.815l-5.616 5.956a1.6 1.6 0 0 1-.68.43z"/><path fill="#0582ca" d="m15.187 16.187-5.735 6.404-.878.871a1.66 1.66 0 0 1-.635-.871l-2.4-7.827a1.6 1.6 0 0 1-.04-.796z"/><path fill="#e9b213" d="m15.13 16.22 5.88-6.272.897-.851c.293.216.513.525.616.885l2.22 7.88c.076.265.08.539.022.797z"/><path fill="#e9b213" d="M15.056 16.628 12.74 7.912l-.388-1.379c.26-.061.536-.062.804.009l8.035 2.122c.324.085.606.266.82.509z"/><path fill="#e9b213" d="m15.18 15.79 2.898 10.058a1.7 1.7 0 0 1-.816.039l-7.855-1.942a1.65 1.65 0 0 1-.832-.483z"/><path fill="#1f2348" d="m23.294 17.57-1.897-6.731a1.4 1.4 0 0 0-1.003-.976L13.616 8.14a1.4 1.4 0 0 0-1.345.379l-4.88 5.009c-.35.358-.48.873-.345 1.354l1.897 6.732c.135.481.517.852 1 .975l6.778 1.723c.484.123.997-.02 1.345-.38l4.882-5.008c.35-.358.481-.872.346-1.354"/></svg>
